X: 2
T: Sheepskins And Beeswax
R: reel
M: 4/4
L: 1/8
K: Ador
EA (3AAA BAGB|AGFa gfef|g2fd efed|Beed BAGA|EA (3AAA BAGB|AGFa gfef|g2fd efed|Beed BAA2:||:a3a- aega|bagf edef|g2fd efed|Beed BA^ce|a3a- aega|bagf edef|g2fd efed|Beed BAA2:|


Tune 2936	Setting 2936

